X: 1
T: Ian Morrison's Reel
M: 4/4
L: 1/8
R: reel
Q: 1/2=116
K: Bmix
b | B2d/2c/2B f2dB | f2fg fecB | A2cA e2cA | e2fe cBBc |
B2d/2c/2B f2dB | f2fg fece | face f2bf | a2ce fBBc |
B2ba b2fa | b2ab affg | a2bf a2ce | a2ba geeg|
face f2af | b2ab affg | afce f2bf | a2ce fBBc |
B2d/2c/2B f2dB | f2fg fecB | A2cA e2cA | e2fe cBBc |
B2d/2c/2B f2dB | f2fg fece | face f2bf | a2ce fBBc |
B2b^a b2fe | fbb^a b2=ab | eaab afec | eaab a2fe |
fbb^a b2fe | fbb^a b2=af | eBce f2bf | a2ce fBBc |
f2f2fBBc | fBBc (3edc (3BcA | (3edc (3BcA EFAB | cfec B2 (3Bcd|
f2f2 fBBc | fBfe cBAc | fBce f2bf | a2ce fBBc |
B2b^a b2fe | fbb^a b2=ab | eaab afec | eaab a2fe |
fbba b2fe | fbba b2af | eBce f2bf  |a2ce fBBc 
I like to go into Gravel Walks after it by changing the last bar to: |a2gf e=dcB
